papirus/16x16/mimetypes/application-x-fictionbook.svg

<?xml version="1.0" encoding="UTF-8" standalone="no"?>
<svg id="svg2" xmlns:rdf="http://www.w3.org/1999/02/22-rdf-syntax-ns#" xmlns="http://www.w3.org/2000/svg" height="16px" width="16px" version="1.1" xmlns:cc="http://creativecommons.org/ns#" viewBox="0 0 16 16" xmlns:dc="http://purl.org/dc/elements/1.1/">
 <metadata id="metadata56">
  <rdf:RDF>
   <cc:Work rdf:about="">
    <dc:format>image/svg+xml</dc:format>
    <dc:type rdf:resource="http://purl.org/dc/dcmitype/StillImage"/>
   </cc:Work>
  </rdf:RDF>
 </metadata>
 <defs id="defs4">
  <linearGradient id="linear0" x1="24" gradientUnits="userSpaceOnUse" x2="44" gradientTransform="matrix(.325 0 0 .33333 -.3 1.5e-7)" y1="24" y2="24">
   <stop id="stop7" stop-opacity=".10196" offset="0"/>
   <stop id="stop9" stop-opacity="0" offset="1"/>
  </linearGradient>
 </defs>
 <path id="path12" fill="#dcd4a6" d="m14 13.332v-10.664c0-0.3711-0.289-0.668-0.648-0.668h-11.704c-0.3589 0-0.648 0.2969-0.648 0.668v10.664c0 0.371 0.2891 0.668 0.6484 0.668h11.703c0.36 0 0.649-0.297 0.649-0.668z"/>
 <path id="path48" fill="url(#linear0)" d="m14 13.332v-10.664c0-0.3711-0.289-0.668-0.648-0.668h-5.852v12h5.852c0.359 0 0.648-0.297 0.648-0.668z"/>
 <path id="path14" fill-opacity=".50196" d="m8 8.5h5v-0.5h-5z"/>
 <path id="path16" fill-opacity=".50196" d="m8 7.5h5v-0.5h-5z"/>
 <path id="path18" fill-opacity=".50196" d="m8 6.5h4.5v-0.5h-4.5z"/>
 <path id="path20" fill-opacity=".50196" d="m8 5.5h3.5v-0.5h-3.5z"/>
 <path id="path22" fill-opacity=".50196" d="m8 4.5h5v-0.5h-5z"/>
 <path id="path24" fill-opacity=".50196" d="m8 3.5h4v-0.5h-4z"/>
 <path id="path26" fill-opacity=".50196" d="m2 3h5v0.5h-5z"/>
 <path id="path28" fill-opacity=".50196" d="m2 4h4.5v0.5h-4.5z"/>
 <path id="path30" fill-opacity=".50196" d="m2 5h4v0.5h-4z"/>
 <path id="path32" fill-opacity=".50196" d="m2 6h3.5v0.5h-3.5z"/>
 <path id="path34" fill-opacity=".50196" d="m2 7h3v0.5h-3z"/>
 <path id="path36" fill-opacity=".50196" d="m2 8h5v0.5h-5z"/>
 <path id="path38" fill-opacity=".50196" d="m2 9h5v0.5h-5z"/>
 <path id="path40" fill-opacity=".50196" d="m2 10h4.5v0.5h-4.5z"/>
 <path id="path42" fill-opacity=".50196" d="m2 11h3.5v0.5h-3.5z"/>
 <path id="path44" fill-opacity=".50196" d="m2 12h5v0.5h-5z"/>
 <path id="path46" fill-opacity=".50196" d="m2 13h4v0.5h-4z"/>
 <path id="path50" fill="#ff5757" d="m5 2h2v6l-1-2-1 2z"/>
 <path id="path52" fill-opacity=".2" fill="#fff" d="m1.6484 2c-0.3593 0-0.6484 0.2969-0.6484 0.668v0.5c0-0.3711 0.2891-0.668 0.6484-0.668h11.703c0.36 0 0.649 0.2969 0.649 0.668v-0.5c0-0.3711-0.289-0.668-0.648-0.668z"/>
</svg>

<?xml version="1.0" encoding="UTF-8" standalone="no"?>
<svg
   xmlns:dc="http://purl.org/dc/elements/1.1/"
   xmlns:cc="http://creativecommons.org/ns#"
   xmlns:rdf="http://www.w3.org/1999/02/22-rdf-syntax-ns#"
   xmlns:svg="http://www.w3.org/2000/svg"
   xmlns="http://www.w3.org/2000/svg"
   xmlns:sodipodi="http://sodipodi.sourceforge.net/DTD/sodipodi-0.dtd"
   xmlns:inkscape="http://www.inkscape.org/namespaces/inkscape"
   id="svg2"
   height="16px"
   width="16px"
   version="1.1"
   viewBox="0 0 16 16"
   inkscape:version="0.91 r"
   sodipodi:docname="application-x-fictionbook.svg">
  <sodipodi:namedview
     pagecolor="#ffffff"
     bordercolor="#666666"
     borderopacity="1"
     objecttolerance="10"
     gridtolerance="10"
     guidetolerance="10"
     inkscape:pageopacity="0"
     inkscape:pageshadow="2"
     inkscape:window-width="1535"
     inkscape:window-height="876"
     id="namedview30"
     showgrid="false"
     inkscape:zoom="34.62"
     inkscape:cx="8"
     inkscape:cy="8"
     inkscape:window-x="65"
     inkscape:window-y="24"
     inkscape:window-maximized="1"
     inkscape:current-layer="svg2" />
  <metadata
     id="metadata56">
    <rdf:RDF>
      <cc:Work
         rdf:about="">
        <dc:format>image/svg+xml</dc:format>
        <dc:type
           rdf:resource="http://purl.org/dc/dcmitype/StillImage" />
      </cc:Work>
    </rdf:RDF>
  </metadata>
  <defs
     id="defs4">
    <linearGradient
       id="linear0"
       y2="24"
       gradientUnits="userSpaceOnUse"
       x2="44"
       gradientTransform="matrix(0.325,0,0,0.33333,-0.3,1.5e-7)"
       y1="24"
       x1="24">
      <stop
         id="stop7"
         stop-opacity=".10196"
         offset="0" />
      <stop
         id="stop9"
         stop-opacity="0"
         offset="1" />
    </linearGradient>
  </defs>
  <path
     style="fill:#dcd4a6"
     inkscape:connector-curvature="0"
     d="M 14,13.332 14,2.668 C 14,2.2969 13.711,2 13.352,2 L 1.648,2 C 1.2891,2 1,2.2969 1,2.668 L 1,13.332 C 1,13.703 1.2891,14 1.6484,14 l 11.703,0 c 0.36,0 0.649,-0.297 0.649,-0.668 z"
     id="path12" />
  <path
     inkscape:connector-curvature="0"
     style="fill:url(#linear0)"
     d="M 14,13.332 14,2.668 C 14,2.2969 13.711,2 13.352,2 L 7.5,2 l 0,12 5.852,0 C 13.711,14 14,13.703 14,13.332 Z"
     id="path48" />
  <path
     style="fill-opacity:0.50196019"
     inkscape:connector-curvature="0"
     d="m 8,8.5 5,0 L 13,8 8,8 Z"
     id="path14" />
  <path
     style="fill-opacity:0.50196019"
     inkscape:connector-curvature="0"
     d="m 8,7.5 5,0 L 13,7 8,7 Z"
     id="path16" />
  <path
     style="fill-opacity:0.50196019"
     inkscape:connector-curvature="0"
     d="m 8,6.5 4.5,0 L 12.5,6 8,6 Z"
     id="path18" />
  <path
     style="fill-opacity:0.50196019"
     inkscape:connector-curvature="0"
     d="m 8,5.5 3.5,0 L 11.5,5 8,5 Z"
     id="path20" />
  <path
     style="fill-opacity:0.50196019"
     inkscape:connector-curvature="0"
     d="m 8,4.5 5,0 L 13,4 8,4 Z"
     id="path22" />
  <path
     style="fill-opacity:0.50196019"
     inkscape:connector-curvature="0"
     d="m 8,3.5 4,0 L 12,3 8,3 Z"
     id="path24" />
  <path
     style="fill-opacity:0.50196019"
     inkscape:connector-curvature="0"
     d="m 2,3 5,0 0,0.5 -5,0 z"
     id="path26" />
  <path
     style="fill-opacity:0.50196013"
     inkscape:connector-curvature="0"
     d="m 2,4 4.5,0 0,0.5 -4.5,0 z"
     id="path28" />
  <path
     style="fill-opacity:0.50196013"
     inkscape:connector-curvature="0"
     d="m 2,5 4,0 0,0.5 -4,0 z"
     id="path30" />
  <path
     style="fill-opacity:0.50196013"
     inkscape:connector-curvature="0"
     d="m 2,6 3.5,0 0,0.5 -3.5,0 z"
     id="path32" />
  <path
     style="fill-opacity:0.50196013"
     inkscape:connector-curvature="0"
     d="m 2,7 3,0 0,0.5 -3,0 z"
     id="path34" />
  <path
     style="fill-opacity:0.50196013"
     inkscape:connector-curvature="0"
     d="m 2,8 5,0 0,0.5 -5,0 z"
     id="path36" />
  <path
     style="fill-opacity:0.50196013"
     inkscape:connector-curvature="0"
     d="m 2,9 5,0 0,0.5 -5,0 z"
     id="path38" />
  <path
     style="fill-opacity:0.50196013"
     inkscape:connector-curvature="0"
     d="m 2,10 4.5,0 0,0.5 -4.5,0 z"
     id="path40" />
  <path
     style="fill-opacity:0.50196013"
     inkscape:connector-curvature="0"
     d="m 2,11 3.5,0 0,0.5 -3.5,0 z"
     id="path42" />
  <path
     style="fill-opacity:0.50196013"
     inkscape:connector-curvature="0"
     d="m 2,12 5,0 0,0.5 -5,0 z"
     id="path44" />
  <path
     style="fill-opacity:0.50196013"
     inkscape:connector-curvature="0"
     d="m 2,13 4,0 0,0.5 -4,0 z"
     id="path46" />
  <path
     style="fill:#ff5757"
     inkscape:connector-curvature="0"
     d="M 5,2 7,2 7,8 6,6 5,8 Z"
     id="path50"
     sodipodi:nodetypes="cccccc" />
  <path
     style="fill:#ffffff;fill-opacity:0.2"
     inkscape:connector-curvature="0"
     d="M 1.6484,2 C 1.2891,2 1,2.2969 1,2.668 l 0,0.5 C 1,2.7969 1.2891,2.5 1.6484,2.5 l 11.703,0 c 0.36,0 0.649,0.2969 0.649,0.668 l 0,-0.5 C 14.0004,2.2969 13.7114,2 13.3524,2 Z"
     id="path52" />
</svg>
